!!!!SEGMENT: pl-sa--591-a-ix-71--003_anonim--koleda.krn
!!!cenid: 18xx:660
!!!COM: Anonim
!!!COM-rismid: pe30004985
!!!CDT:
!!!CNT:
!!!OTL: Kolęda
!!!PDT:
!!!AGN: Secular
!!!SMS-siglum: PL-SA
!!!SMS-shelfmark: 591/A IX 71
!!!SMS-shelfwork: 003 W
!!!SMS-variant:
!!!SMS-altvar:
!!!NIFC-rismid: 1001113066
!!!URL-scan: http://bc.bdsandomierz.pl/dlibra/publication/1400/edition/1368/content
!!!ONB-nifc: Str. 1, s. 4-5 (od numeru 3)
**kern	**kern
*part1	*part1
*staff2	*staff1
*Ipiano	*Iempty
*I"Piano	*
*I'P-no	*
*clefF4	*clefG2
*k[]	*k[]
*C:	*C:
*M2/4	*M2/4
*A,A,B	*
*A	*A
=1	=1
!	!LO:SIC:o:s:=:v:w poprzednim utworze wpisany jest krzyżyk na wyokości F, być może tu też powinien być
!	!LO:SIC:o:s:=:v:brak metrum
!	!LO:SIC:o:s:=:v:na całej stronie nie ma ani jednego klucza
2ryy	8g\L
.	8f\
.	8g\
.	8a\J 8f\
=2	=2
2ryy	8b\L 8g\
.	8a\ 8f\
.	8b\ 8g\
.	8cc\J 8a\
=3	=3
2ryy	8dd\L 8b\
.	8ee\ 8cc\
.	8dd\ 8b\
.	8cc\J 8a\
!!LO:LB:g=original
=4	=4
2ryy	4b\ 4g\
.	4a\ 4f\
*B	*B
=5:||	=5:||
2ryy	4dd\ 4b\
.	8b\L
.	8dd\J
=6	=6
2ryy	4cc\
.	8a\L
.	8cc\J
=7	=7
2ryy	8b\L
.	8a\
.	8g\
.	8b\J
=8	=8
2ryy	4dd\ 4b\
.	4dd\ 4b\
=9	=9
2ryy	4dd\ 4b\
.	8b\L
.	8dd\J
=10	=10
2ryy	4cc\
.	8a\L
.	8cc\J
=11	=11
2ryy	8b\L
.	8a\
.	8g\
.	8f\J
=12	=12
!	!LO:SIC:o:s:=:v:interpretacja niepewna
4G/ 4GG/ 4EE/	4g/
==	==
*-	*-
!!!system-decoration: s1,s2
!!!EED: Leszek Kubiak
!!!EST: 2020-12-14
!!!AIN: 1 piano
!!!ENC: Kamil Watkowski
!!!END: 2020-06-19
